src/assets/icons/boxes-menu.svg

<svg width="32" height="32" viewBox="0 0 32 32" fill="none" xmlns="http://www.w3.org/2000/svg">
<g clip-path="url(#clip0_2409_4797)">
<path d="M24.2748 15.9067L26.3268 20.6667H30.3202C30.5218 20.6591 30.7208 20.7139 30.8901 20.8236C31.0594 20.9333 31.1907 21.0926 31.2662 21.2797C31.3416 21.4669 31.3574 21.6727 31.3114 21.8691C31.2655 22.0656 31.1601 22.2431 31.0095 22.3774L27.5428 25.4654L29.4628 29.8827C29.5471 30.0848 29.5659 30.3081 29.5166 30.5214C29.4672 30.7347 29.3523 30.9271 29.1879 31.0717C29.0235 31.2162 28.8179 31.3056 28.6 31.3272C28.3822 31.3487 28.1631 31.3015 27.9735 31.192L23.3335 28.5774L18.6935 31.192C18.5039 31.3015 18.2848 31.3487 18.0669 31.3272C17.8491 31.3056 17.6435 31.2162 17.4791 31.0717C17.3147 30.9271 17.1997 30.7347 17.1504 30.5214C17.1011 30.3081 17.1199 30.0848 17.2042 29.8827L19.1242 25.4654L15.6575 22.3774C15.5065 22.2436 15.4004 22.0665 15.354 21.8702C15.3075 21.6739 15.3228 21.468 15.3978 21.2807C15.4729 21.0935 15.6039 20.934 15.7731 20.8241C15.9422 20.7141 16.1412 20.6592 16.3428 20.6667H20.3428L22.3975 15.9067C22.4889 15.7374 22.6244 15.5959 22.7896 15.4973C22.9549 15.3987 23.1437 15.3467 23.3362 15.3467C23.5286 15.3467 23.7174 15.3987 23.8827 15.4973C24.0479 15.5959 24.1834 15.7374 24.2748 15.9067Z" stroke="#353434" stroke-width="1.5" stroke-linecap="round" stroke-linejoin="round"/>
<path d="M11.3332 20.6666H1.99984C1.64622 20.6666 1.30708 20.5262 1.05703 20.2761C0.80698 20.0261 0.666504 19.6869 0.666504 19.3333V6.55196C0.666579 6.19837 0.807105 5.85928 1.05717 5.60929L5.60917 1.05729C5.85916 0.807227 6.19824 0.666701 6.55184 0.666626H13.4478C13.8014 0.666701 14.1405 0.807227 14.3905 1.05729L18.9425 5.60929C19.1926 5.85928 19.3331 6.19837 19.3332 6.55196V14" stroke="#353434" stroke-width="1.5" stroke-linecap="round" stroke-linejoin="round"/>
<path d="M19.2133 6H0.786621" stroke="#353434" stroke-width="1.5" stroke-linecap="round" stroke-linejoin="round"/>
<path d="M10 0.666626V5.99996" stroke="#353434" stroke-width="1.5" stroke-linecap="round" stroke-linejoin="round"/>
</g>
<defs>
<clipPath id="clip0_2409_4797">
<rect width="32" height="32" fill="white"/>
</clipPath>
</defs>
</svg>

<svg xmlns="http://www.w3.org/2000/svg" width="32" height="32" fill="none"><g stroke="#353434" stroke-linecap="round" stroke-linejoin="round" stroke-width="1.5" clip-path="url(#a)"><path d="m24.2746 15.9067 2.052 4.76h3.9933a.98.98 0 0 1 .946.613.98.98 0 0 1-.2567 1.0976l-3.4666 3.088 1.92 4.4174a1.047 1.047 0 0 1-.275 1.1889 1.046 1.046 0 0 1-1.2144.1204l-4.64-2.6147-4.64 2.6147a1.0467 1.0467 0 0 1-1.4893-1.3093l1.92-4.4174-3.4667-3.088a.9788.9788 0 0 1 .1156-1.5533.98.98 0 0 1 .5698-.1573h4l2.0546-4.76a1.0665 1.0665 0 0 1 1.8774 0M11.3334 20.6667H2.0001a1.333 1.333 0 0 1-1.3334-1.3334V6.552c.0001-.3536.1406-.6927.3907-.9427l4.552-4.552c.25-.25.589-.3906.9427-.3906h6.896c.3536 0 .6927.1406.9426.3906l4.552 4.552c.2501.25.3906.5891.3907.9427V14M19.2133 6H.7866M10 .6667V6"/></g><defs><clipPath id="a"><path fill="#fff" d="M0 0h32v32H0z"/></clipPath></defs></svg>
